packages/icons/raw/imported/ArrowsRemoveBoost.svg

<svg width="32" height="32" viewBox="0 0 32 32" fill="none" xmlns="http://www.w3.org/2000/svg">
<path d="M25.9661 9.13765C26.1294 8.91502 26.0814 8.6021 25.8588 8.43872C25.6362 8.27534 25.3233 8.32336 25.1599 8.54598L25.9661 9.13765ZM21.3637 14.5637L21.7668 14.8595L21.3637 14.5637ZM19.6533 14.9299L19.4067 15.3648L19.6533 14.9299ZM15.3944 12.5151L15.641 12.0801C15.4214 11.9556 15.1436 12.0143 14.993 12.2169L15.3944 12.5151ZM8.13657 21.4445C7.97188 21.6662 8.01805 21.9794 8.2397 22.1441C8.46136 22.3087 8.77455 22.2626 8.93925 22.0409L8.13657 21.4445ZM13.7972 22.076C14.0707 22.0377 14.2613 21.785 14.223 21.5115C14.1847 21.238 13.932 21.0474 13.6585 21.0857L13.7972 22.076ZM7.99464 22.384L7.50239 22.4717C7.54954 22.7365 7.79768 22.9165 8.06401 22.8792L7.99464 22.384ZM7.50957 16.8087C7.46115 16.5369 7.20151 16.3557 6.92965 16.4041C6.65779 16.4526 6.47665 16.7122 6.52507 16.9841L7.50957 16.8087ZM25.1599 8.54598L20.9606 14.2679L21.7668 14.8595L25.9661 9.13765L25.1599 8.54598ZM19.9 14.4949L15.641 12.0801L15.1478 12.95L19.4067 15.3648L19.9 14.4949ZM14.993 12.2169L8.13657 21.4445L8.93925 22.0409L15.7957 12.8133L14.993 12.2169ZM20.9606 14.2679C20.7173 14.5994 20.2577 14.6978 19.9 14.4949L19.4067 15.3648C20.2055 15.8177 21.2235 15.5998 21.7668 14.8595L20.9606 14.2679ZM13.6585 21.0857L7.92528 21.8889L8.06401 22.8792L13.7972 22.076L13.6585 21.0857ZM8.4869 22.2964L7.50957 16.8087L6.52507 16.9841L7.50239 22.4717L8.4869 22.2964Z" fill="black"/>
</svg>

<svg width="32" height="32" fill="none" xmlns="http://www.w3.org/2000/svg"><path d="M25.966 9.138a.5.5 0 0 0-.806-.592l.806.592Zm-4.602 5.426.403.296-.403-.296Zm-1.71.366-.247.435.246-.435Zm-4.26-2.415.247-.435a.5.5 0 0 0-.648.137l.401.298Zm-7.257 8.93a.5.5 0 0 0 .802.596l-.802-.596Zm5.66.631a.5.5 0 1 0-.139-.99l.14.99Zm-5.802.308-.493.088a.5.5 0 0 0 .562.407l-.07-.495Zm-.485-5.575a.5.5 0 0 0-.985.175l.985-.175Zm17.65-8.263-4.2 5.722.807.591 4.2-5.721-.807-.592Zm-5.26 5.949-4.259-2.415-.493.87 4.259 2.415.493-.87Zm-4.907-2.278-6.856 9.228.802.596 6.857-9.228-.803-.596Zm5.968 2.05a.82.82 0 0 1-1.061.228l-.493.87a1.82 1.82 0 0 0 2.36-.505l-.806-.592Zm-7.302 6.819-5.734.803.139.99 5.733-.803-.139-.99Zm-5.172 1.21L7.51 16.81l-.985.175.977 5.488.985-.176Z" fill="#000"/></svg>
